public/img/icons/prize9.svg

<svg width="35" height="35" viewBox="0 0 35 35" fill="none" xmlns="http://www.w3.org/2000/svg">
<g clip-path="url(#clip0_683_10317)">
<path d="M17.4043 0.883728C8.0203 0.883728 0.404297 8.49973 0.404297 17.8837C0.404297 27.2677 8.0203 34.8837 17.4043 34.8837C26.7883 34.8837 34.4043 27.2677 34.4043 17.8837C34.4043 8.49973 26.7883 0.883728 17.4043 0.883728ZM27.6043 19.1417C27.4003 24.3947 23.0653 28.7297 17.8123 28.9337C15.3864 29.0311 13.0054 28.2591 11.098 26.7569C9.19063 25.2547 7.8822 23.1209 7.4083 20.7397C7.1873 19.7027 8.0203 18.7337 9.0743 18.7337C9.8733 18.7337 10.5703 19.2947 10.7403 20.0937C10.9181 20.9693 11.2668 21.8011 11.7665 22.5417C12.2662 23.2823 12.907 23.9171 13.6523 24.4098C14.3976 24.9024 15.2328 25.2433 16.1099 25.4128C16.9871 25.5823 17.8891 25.5772 18.7643 25.3977C21.4163 24.8877 23.5583 22.7457 24.0683 20.0937C24.27 19.1056 24.2494 18.0851 24.008 17.1059C23.7666 16.1268 23.3104 15.2136 22.6725 14.4325C22.0346 13.6514 21.231 13.022 20.3198 12.5898C19.4086 12.1576 18.4128 11.9335 17.4043 11.9337L17.4043 14.9767C17.4043 15.7417 16.4863 16.1157 15.9593 15.5717L11.1993 10.8287C10.8593 10.4887 10.8593 9.96173 11.1993 9.62173L15.9423 4.87873C16.4863 4.35173 17.4043 4.72573 17.4043 5.49073V8.53373C18.7781 8.53501 20.1376 8.81334 21.4014 9.35209C22.6652 9.89084 23.8073 10.6789 24.7595 11.6692C25.7117 12.6595 26.4545 13.8317 26.9432 15.1156C27.432 16.3996 27.6569 17.7689 27.6043 19.1417Z" fill="white"/>
</g>
<defs>
<clipPath id="clip0_683_10317">
<rect width="33.9269" height="33.9269" fill="white" transform="translate(0.404297 0.883728)"/>
</clipPath>
</defs>
</svg>

<svg width="35" height="35" fill="none" xmlns="http://www.w3.org/2000/svg"><g clip-path="url(#a)"><path d="M17.404.884c-9.384 0-17 7.616-17 17s7.616 17 17 17 17-7.616 17-17-7.616-17-17-17Zm10.2 18.258c-.204 5.253-4.539 9.588-9.792 9.792A10.191 10.191 0 0 1 7.408 20.74c-.22-1.037.612-2.006 1.666-2.006.8 0 1.496.56 1.666 1.36a6.794 6.794 0 0 0 8.024 5.304c2.652-.51 4.794-2.652 5.304-5.304a6.8 6.8 0 0 0-6.664-8.16v3.043c0 .765-.918 1.139-1.445.595l-4.76-4.743a.842.842 0 0 1 0-1.207l4.743-4.743c.544-.527 1.462-.153 1.462.612v3.043a10.217 10.217 0 0 1 10.2 10.608Z" fill="#fff"/></g><defs><clipPath id="a"><path fill="#fff" transform="translate(.404 .884)" d="M0 0h33.927v33.927H0z"/></clipPath></defs></svg>
